X:303
T:Trip to Killarney, The
R:jig
Z:id:hn-jig-303
M:6/8
K:D
d2f agf|agf a2f|d2f agf|e2f gfe|
d2f agf|agf a2f|gbg faf|e2f gfe:|
|:fed dAF|DFA d2e|fed dcd|e2f gfe|
fed dAF|DFA dAF|GBG FAF|E2F GFE:|
|:D2F AGF|AGF A2F|D2F AGF|E2F GFE|
D2F AGF|AGF A2F|GBG FAF|E2F GFE:|
|:~d3 cBc|dAG FED|~d3 Bcd|e2f gfe|
dfd cec|dAG FED|GBG FAF|E2F GFE:|

